Sources/FrostedUI/Resources/Icons.xcassets/document24.imageset/document-24.svg

<svg width="24" height="24" viewBox="0 0 24 24" fill="none" xmlns="http://www.w3.org/2000/svg" data-fui-icon="true">
  <path
    d="M13.4893 0C14.4998 2.13996e-05 15.4661 0.414824 16.1621 1.14746L20.4863 5.69922C21.1371 6.38437 21.5 7.2933 21.5 8.23828V20.3135C21.4998 22.3494 19.8494 23.9998 17.8135 24H6.18652C4.15059 23.9998 2.50017 22.3494 2.5 20.3135V3.68652C2.50017 1.65059 4.15059 0.000172254 6.18652 0H13.4893ZM6.18652 1.5C4.97902 1.50017 4.00017 2.47902 4 3.68652V20.3135C4.00017 21.521 4.97902 22.4998 6.18652 22.5H17.8135C19.021 22.4998 19.9998 21.521 20 20.3135V9H16.1865C14.1506 8.99983 12.5002 7.34941 12.5 5.31348V1.5H6.18652ZM14 5.31348C14.0002 6.52098 14.979 7.49983 16.1865 7.5H19.8691C19.7674 7.21681 19.6094 6.9545 19.3984 6.73242L15.0742 2.18066C14.781 1.87213 14.4068 1.66034 14 1.5625V5.31348Z"
    fill="currentColor"
  />
</svg>

<svg xmlns="http://www.w3.org/2000/svg" width="24" height="24" fill="none" data-fui-icon="true" viewBox="0 0 24 24"><path fill="currentColor" d="M13.49 0c1.01 0 1.976.415 2.672 1.147L20.486 5.7A3.7 3.7 0 0 1 21.5 8.24v12.075A3.687 3.687 0 0 1 17.814 24H6.187A3.687 3.687 0 0 1 2.5 20.314V3.687A3.687 3.687 0 0 1 6.187 0zM6.186 1.5A2.187 2.187 0 0 0 4 3.687v16.627c0 1.207.979 2.186 2.187 2.186h11.627A2.187 2.187 0 0 0 20 20.314V9h-3.814A3.687 3.687 0 0 1 12.5 5.313V1.5zM14 5.313c0 1.208.979 2.187 2.186 2.187h3.683a2.2 2.2 0 0 0-.47-.768l-4.325-4.551A2.2 2.2 0 0 0 14 1.563z"/></svg>
